X: 4
T: The Curlew Hills
R: barndance
M: 4/4
L: 1/8
K: Gmaj
|: D2 |GABc dgfa | g2 B2 d2 dB | cBAB c2 cA | BAGA BcBA |
G2 Bc d2 fa | g2 B2 d2 dB | cBAB cAFG |[1 AGGF G2 :|[2 A2 G2 GA ||
|: Bc |d2 b2 c2 a2 | Bggf gdBG | FGAB cAFA | GFGA BABc |
d2 bB c2 aA | Bggf gdBG | FGAB cAFG |[1 A2 G2 GA :|[2 A2 G2 G2 |]


Tune 670	Setting 13714

